source/work/images/artifact_informationarchitecture.svg

<svg xmlns="http://www.w3.org/2000/svg" width="64" height="64" viewBox="0 0 64 64"><style type="text/css">.frame{fill:#FFFFFF;} .content{opacity:0.5;fill:#FFFFFF;}</style><path class="frame" d="M60 4h-56c-1.657 0-3 1.343-3 3v49.9c0 1.657 1.343 3 3 3h56c1.657 0 3-1.343 3-3v-49.9c0-1.657-1.343-3-3-3zm-58 3c0-1.103.897-2 2-2h56c1.103 0 2 .897 2 2v43.9c0 1.103-.897 2-2 2h-56c-1.103 0-2-.897-2-2v-43.9zm0 46.121c.532.479 1.228.779 2 .779h56c.772 0 1.468-.3 2-.779v.779c0 1.103-.897 2-2 2h-56c-1.103 0-2-.897-2-2v-.779zm58 5.779h-56c-1.103 0-2-.897-2-2v-.779c.532.479 1.228.779 2 .779h56c.772 0 1.468-.3 2-.779v.779c0 1.103-.897 2-2 2z"/><path class="content" d="M19 11h-12c-1.105 0-2 .895-2 2v3c0 1.105.895 2 2 2h5.5v2h-5.5c-1.105 0-2 .895-2 2v3c0 1.105.895 2 2 2h5.5v2h-5.5c-1.105 0-2 .895-2 2v3c0 1.105.895 2 2 2h5.5v2h-5.5c-1.105 0-2 .895-2 2v3c0 1.105.895 2 2 2h12c1.105 0 2-.895 2-2v-3c0-1.105-.895-2-2-2h-5.5v-2h5.5c1.105 0 2-.895 2-2v-3c0-1.105-.895-2-2-2h-5.5v-2h5.5c1.105 0 2-.895 2-2v-3c0-1.105-.895-2-2-2h-5.5v-2h5.5c1.105 0 2-.895 2-2v-3c0-1.105-.895-2-2-2zm1 29v3c0 .551-.449 1-1 1h-12c-.551 0-1-.449-1-1v-3c0-.551.449-1 1-1h12c.551 0 1 .449 1 1zm0-9v3c0 .551-.449 1-1 1h-12c-.551 0-1-.449-1-1v-3c0-.551.449-1 1-1h12c.551 0 1 .449 1 1zm0-9v3c0 .551-.449 1-1 1h-12c-.551 0-1-.449-1-1v-3c0-.551.449-1 1-1h12c.551 0 1 .449 1 1zm0-6c0 .551-.449 1-1 1h-12c-.551 0-1-.449-1-1v-3c0-.551.449-1 1-1h12c.551 0 1 .449 1 1v3zm-2-2.5c0 .276-.224.5-.5.5h-9c-.276 0-.5-.224-.5-.5s.224-.5.5-.5h9c.276 0 .5.224.5.5zm-2 2c0 .276-.224.5-.5.5h-5c-.276 0-.5-.224-.5-.5s.224-.5.5-.5h5c.276 0 .5.224.5.5zm-8 7c0-.276.224-.5.5-.5h9c.276 0 .5.224.5.5s-.224.5-.5.5h-9c-.276 0-.5-.224-.5-.5zm8 2c0 .276-.224.5-.5.5h-5c-.276 0-.5-.224-.5-.5s.224-.5.5-.5h5c.276 0 .5.224.5.5zm-8 7c0-.276.224-.5.5-.5h9c.276 0 .5.224.5.5s-.224.5-.5.5h-9c-.276 0-.5-.224-.5-.5zm8 2c0 .276-.224.5-.5.5h-5c-.276 0-.5-.224-.5-.5s.224-.5.5-.5h5c.276 0 .5.224.5.5zm-8 7c0-.276.224-.5.5-.5h9c.276 0 .5.224.5.5s-.224.5-.5.5h-9c-.276 0-.5-.224-.5-.5zm8 2c0 .276-.224.5-.5.5h-5c-.276 0-.5-.224-.5-.5s.224-.5.5-.5h5c.276 0 .5.224.5.5zm22-31.5h-12c-1.105 0-2 .895-2 2v3c0 1.105.895 2 2 2h5.5v2h-5.5c-1.105 0-2 .895-2 2v3c0 1.105.895 2 2 2h12c1.105 0 2-.895 2-2v-3c0-1.105-.895-2-2-2h-5.5v-2h5.5c1.105 0 2-.895 2-2v-3c0-1.105-.895-2-2-2zm1 11v3c0 .551-.449 1-1 1h-12c-.551 0-1-.449-1-1v-3c0-.551.449-1 1-1h12c.551 0 1 .449 1 1zm0-6c0 .551-.449 1-1 1h-12c-.551 0-1-.449-1-1v-3c0-.551.449-1 1-1h12c.551 0 1 .449 1 1v3zm-2-2.5c0 .276-.224.5-.5.5h-9c-.276 0-.5-.224-.5-.5s.224-.5.5-.5h9c.276 0 .5.224.5.5zm-2 2c0 .276-.224.5-.5.5h-5c-.276 0-.5-.224-.5-.5s.224-.5.5-.5h5c.276 0 .5.224.5.5zm-8 7c0-.276.224-.5.5-.5h9c.276 0 .5.224.5.5s-.224.5-.5.5h-9c-.276 0-.5-.224-.5-.5zm8 2c0 .276-.224.5-.5.5h-5c-.276 0-.5-.224-.5-.5s.224-.5.5-.5h5c.276 0 .5.224.5.5zm22-6.5c1.105 0 2-.895 2-2v-3c0-1.105-.895-2-2-2h-12c-1.105 0-2 .895-2 2v3c0 1.105.895 2 2 2h5.5v2h-5.5c-1.105 0-2 .895-2 2v3c0 1.105.895 2 2 2h5.5v2h-5.5c-1.105 0-2 .895-2 2v3c0 1.105.895 2 2 2h12c1.105 0 2-.895 2-2v-3c0-1.105-.895-2-2-2h-5.5v-2h5.5c1.105 0 2-.895 2-2v-3c0-1.105-.895-2-2-2h-5.5v-2h5.5zm1 13v3c0 .551-.449 1-1 1h-12c-.551 0-1-.449-1-1v-3c0-.551.449-1 1-1h12c.551 0 1 .449 1 1zm0-9v3c0 .551-.449 1-1 1h-12c-.551 0-1-.449-1-1v-3c0-.551.449-1 1-1h12c.551 0 1 .449 1 1zm-14-6v-3c0-.551.449-1 1-1h12c.551 0 1 .449 1 1v3c0 .551-.449 1-1 1h-12c-.551 0-1-.449-1-1zm12-2.5c0 .276-.224.5-.5.5h-9c-.276 0-.5-.224-.5-.5s.224-.5.5-.5h9c.276 0 .5.224.5.5zm-2 2c0 .276-.224.5-.5.5h-5c-.276 0-.5-.224-.5-.5s.224-.5.5-.5h5c.276 0 .5.224.5.5zm-8 7c0-.276.224-.5.5-.5h9c.276 0 .5.224.5.5s-.224.5-.5.5h-9c-.276 0-.5-.224-.5-.5zm8 2c0 .276-.224.5-.5.5h-5c-.276 0-.5-.224-.5-.5s.224-.5.5-.5h5c.276 0 .5.224.5.5zm-8 7c0-.276.224-.5.5-.5h9c.276 0 .5.224.5.5s-.224.5-.5.5h-9c-.276 0-.5-.224-.5-.5zm8 2c0 .276-.224.5-.5.5h-5c-.276 0-.5-.224-.5-.5s.224-.5.5-.5h5c.276 0 .5.224.5.5z"/></svg>

<?xml version="1.0" encoding="utf-8"?>
<!-- Generator: Adobe Illustrator 19.2.1, SVG Export Plug-In . SVG Version: 6.00 Build 0)  -->
<svg version="1.1" id="icons" xmlns="http://www.w3.org/2000/svg" xmlns:xlink="http://www.w3.org/1999/xlink" x="0px" y="0px"
	 width="64px" height="64px" viewBox="0 0 64 64" style="enable-background:new 0 0 64 64;" xml:space="preserve">
<style type="text/css">
	.frame{fill:#FFFFFF;}
	.content{opacity:0.5;fill:#FFFFFF;}
</style>
<path class="frame" d="M60,4H4C2.343,4,1,5.343,1,7v43.375V50.9v2.475V53.9v3c0,1.657,1.343,3,3,3h56c1.657,0,3-1.343,3-3v-3v-0.525
	V50.9v-0.525V7C63,5.343,61.657,4,60,4z M2,7c0-1.103,0.897-2,2-2h56c1.103,0,2,0.897,2,2v43.9c0,1.103-0.897,2-2,2H4
	c-1.103,0-2-0.897-2-2V7z M2,53.121C2.532,53.6,3.228,53.9,4,53.9h56c0.772,0,1.468-0.3,2-0.779V53.9c0,1.103-0.897,2-2,2H4
	c-1.103,0-2-0.897-2-2V53.121z M60,58.9H4c-1.103,0-2-0.897-2-2v-0.779C2.532,56.6,3.228,56.9,4,56.9h56c0.772,0,1.468-0.3,2-0.779
	V56.9C62,58.003,61.103,58.9,60,58.9z"/>
<path class="content" d="M19,11H7c-1.105,0-2,0.895-2,2v3c0,1.105,0.895,2,2,2h5.5v2H7c-1.105,0-2,0.895-2,2v3c0,1.105,0.895,2,2,2
	h5.5v2H7c-1.105,0-2,0.895-2,2v3c0,1.105,0.895,2,2,2h5.5v2H7c-1.105,0-2,0.895-2,2v3c0,1.105,0.895,2,2,2h12c1.105,0,2-0.895,2-2
	v-3c0-1.105-0.895-2-2-2h-5.5v-2H19c1.105,0,2-0.895,2-2v-3c0-1.105-0.895-2-2-2h-5.5v-2H19c1.105,0,2-0.895,2-2v-3
	c0-1.105-0.895-2-2-2h-5.5v-2H19c1.105,0,2-0.895,2-2v-3C21,11.895,20.105,11,19,11z M20,40v3c0,0.551-0.449,1-1,1H7
	c-0.551,0-1-0.449-1-1v-3c0-0.551,0.449-1,1-1h12C19.551,39,20,39.449,20,40z M20,31v3c0,0.551-0.449,1-1,1H7c-0.551,0-1-0.449-1-1
	v-3c0-0.551,0.449-1,1-1h12C19.551,30,20,30.449,20,31z M20,22v3c0,0.551-0.449,1-1,1H7c-0.551,0-1-0.449-1-1v-3
	c0-0.551,0.449-1,1-1h12C19.551,21,20,21.449,20,22z M20,16c0,0.551-0.449,1-1,1H7c-0.551,0-1-0.449-1-1v-3c0-0.551,0.449-1,1-1h12
	c0.551,0,1,0.449,1,1V16z M18,13.5c0,0.276-0.224,0.5-0.5,0.5h-9C8.224,14,8,13.776,8,13.5S8.224,13,8.5,13h9
	C17.776,13,18,13.224,18,13.5z M16,15.5c0,0.276-0.224,0.5-0.5,0.5h-5c-0.276,0-0.5-0.224-0.5-0.5s0.224-0.5,0.5-0.5h5
	C15.776,15,16,15.224,16,15.5z M8,22.5C8,22.224,8.224,22,8.5,22h9c0.276,0,0.5,0.224,0.5,0.5S17.776,23,17.5,23h-9
	C8.224,23,8,22.776,8,22.5z M16,24.5c0,0.276-0.224,0.5-0.5,0.5h-5c-0.276,0-0.5-0.224-0.5-0.5s0.224-0.5,0.5-0.5h5
	C15.776,24,16,24.224,16,24.5z M8,31.5C8,31.224,8.224,31,8.5,31h9c0.276,0,0.5,0.224,0.5,0.5S17.776,32,17.5,32h-9
	C8.224,32,8,31.776,8,31.5z M16,33.5c0,0.276-0.224,0.5-0.5,0.5h-5c-0.276,0-0.5-0.224-0.5-0.5s0.224-0.5,0.5-0.5h5
	C15.776,33,16,33.224,16,33.5z M8,40.5C8,40.224,8.224,40,8.5,40h9c0.276,0,0.5,0.224,0.5,0.5S17.776,41,17.5,41h-9
	C8.224,41,8,40.776,8,40.5z M16,42.5c0,0.276-0.224,0.5-0.5,0.5h-5c-0.276,0-0.5-0.224-0.5-0.5s0.224-0.5,0.5-0.5h5
	C15.776,42,16,42.224,16,42.5z M38,11H26c-1.105,0-2,0.895-2,2v3c0,1.105,0.895,2,2,2h5.5v2H26c-1.105,0-2,0.895-2,2v3
	c0,1.105,0.895,2,2,2h12c1.105,0,2-0.895,2-2v-3c0-1.105-0.895-2-2-2h-5.5v-2H38c1.105,0,2-0.895,2-2v-3C40,11.895,39.105,11,38,11z
	 M39,22v3c0,0.551-0.449,1-1,1H26c-0.551,0-1-0.449-1-1v-3c0-0.551,0.449-1,1-1h12C38.551,21,39,21.449,39,22z M39,16
	c0,0.551-0.449,1-1,1H26c-0.551,0-1-0.449-1-1v-3c0-0.551,0.449-1,1-1h12c0.551,0,1,0.449,1,1V16z M37,13.5
	c0,0.276-0.224,0.5-0.5,0.5h-9c-0.276,0-0.5-0.224-0.5-0.5s0.224-0.5,0.5-0.5h9C36.776,13,37,13.224,37,13.5z M35,15.5
	c0,0.276-0.224,0.5-0.5,0.5h-5c-0.276,0-0.5-0.224-0.5-0.5s0.224-0.5,0.5-0.5h5C34.776,15,35,15.224,35,15.5z M27,22.5
	c0-0.276,0.224-0.5,0.5-0.5h9c0.276,0,0.5,0.224,0.5,0.5S36.776,23,36.5,23h-9C27.224,23,27,22.776,27,22.5z M35,24.5
	c0,0.276-0.224,0.5-0.5,0.5h-5c-0.276,0-0.5-0.224-0.5-0.5s0.224-0.5,0.5-0.5h5C34.776,24,35,24.224,35,24.5z M57,18
	c1.105,0,2-0.895,2-2v-3c0-1.105-0.895-2-2-2H45c-1.105,0-2,0.895-2,2v3c0,1.105,0.895,2,2,2h5.5v2H45c-1.105,0-2,0.895-2,2v3
	c0,1.105,0.895,2,2,2h5.5v2H45c-1.105,0-2,0.895-2,2v3c0,1.105,0.895,2,2,2h12c1.105,0,2-0.895,2-2v-3c0-1.105-0.895-2-2-2h-5.5v-2
	H57c1.105,0,2-0.895,2-2v-3c0-1.105-0.895-2-2-2h-5.5v-2H57z M58,31v3c0,0.551-0.449,1-1,1H45c-0.551,0-1-0.449-1-1v-3
	c0-0.551,0.449-1,1-1h12C57.551,30,58,30.449,58,31z M58,22v3c0,0.551-0.449,1-1,1H45c-0.551,0-1-0.449-1-1v-3c0-0.551,0.449-1,1-1
	h12C57.551,21,58,21.449,58,22z M44,16v-3c0-0.551,0.449-1,1-1h12c0.551,0,1,0.449,1,1v3c0,0.551-0.449,1-1,1H45
	C44.449,17,44,16.551,44,16z M56,13.5c0,0.276-0.224,0.5-0.5,0.5h-9c-0.276,0-0.5-0.224-0.5-0.5s0.224-0.5,0.5-0.5h9
	C55.776,13,56,13.224,56,13.5z M54,15.5c0,0.276-0.224,0.5-0.5,0.5h-5c-0.276,0-0.5-0.224-0.5-0.5s0.224-0.5,0.5-0.5h5
	C53.776,15,54,15.224,54,15.5z M46,22.5c0-0.276,0.224-0.5,0.5-0.5h9c0.276,0,0.5,0.224,0.5,0.5S55.776,23,55.5,23h-9
	C46.224,23,46,22.776,46,22.5z M54,24.5c0,0.276-0.224,0.5-0.5,0.5h-5c-0.276,0-0.5-0.224-0.5-0.5s0.224-0.5,0.5-0.5h5
	C53.776,24,54,24.224,54,24.5z M46,31.5c0-0.276,0.224-0.5,0.5-0.5h9c0.276,0,0.5,0.224,0.5,0.5S55.776,32,55.5,32h-9
	C46.224,32,46,31.776,46,31.5z M54,33.5c0,0.276-0.224,0.5-0.5,0.5h-5c-0.276,0-0.5-0.224-0.5-0.5s0.224-0.5,0.5-0.5h5
	C53.776,33,54,33.224,54,33.5z"/>
</svg>
